X:1
T:Title
%%score { ( 1 3 ) | ( 2 4 ) }
L:1/8
Q:1/4=84
M:6/8
K:C
V:1 treble nm="Grand Piano"
V:3 treble 
V:2 bass 
V:4 bass 
V:1
 [EG]>[FA][EG] [EG][CE][Ec] | [FB]6 | B>cB [FB][DF][FA] | [EG]3- [EG]2 [DF] | %4
w: James~McGranahan * * * * *||||
 [CE][EG][Ec] [Ge]>[Gd][Gc] | [GB] A2- A2 A | GB>B BAB | [Ec]6 | d>cB BAG | c-[Gc-][Fc-] [Ec]3 | %10
w: ||||||
 e>[Ed][Ec] [Fc][FA][Fd] | d6 | E[EG][Ec] [Ge]>[Gd][Gc] | z A2- A2 z |[M:7/8] GBd [Bf]3 B | %15
w: |||||
[M:3/4] [Ec]6 |] %16
w: |
V:2
 [C,C]>[C,C][C,C] [C,C][C,G,][C,G,] | [D,G,]6 | [G,DF]>[G,DF][G,DF][K:bass] [G,,G,][G,,G,][G,,G,] | %3
 [C,G,]3- [C,G,]2 [C,G,] | [C,G,][C,C][C,G,] [C,C]>[D,B,][E,C] | %5
 [F,C][K:treble] [F,CF]2- [F,CF]2 [F,CF] | [G,B,F][G,DF]>[G,DF] [G,DF][G,CF][G,F] | [C,G,]6 | %8
 [G,B,F]>[G,DF][G,DF] [G,DF][G,CF][G,B,F] | z B,A, .G,3 | [A,,CE]>[B,,B,][C,A,] [D,A,][D,D][D,C] | %11
 [B,G]B,[A,C] [G,B,]2 [G,B,E]/[K:bass][G,B,D]/ | [C,C][C,C][C,G,] [C,C]>[D,B,][E,C] | %13
 [F,C][CF]C C[K:treble]C[F,CF]/[F,CF]/ |[M:7/8] [G,B,F][G,DF][G,DF] [G,D]3 [G,F] | %15
[M:3/4][K:bass] [C,G,]6 |] %16
V:3
 x6 | x6 | x6 | x6 | x6 | x6 | x6 | x6 | x6 | .[CE]3 z3 | x6 | z G^F =F2 G/F/ | x6 | %13
 .[GB]2 F FFA/A/ |[M:7/8] x7 |[M:3/4] x6 |] %16
V:4
 x6 | x6 | x3[K:bass] x3 | x6 | x6 | x[K:treble] x5 | x6 | x6 | x6 | C,6 | x6 | .G,3 z3[K:bass] | %12
 x6 | z F,2- F,2[K:treble] z |[M:7/8] x7 |[M:3/4][K:bass] x6 |] %16

